icon/pk/apple.svg

<svg viewBox="0 0 48 48" fill="none" xmlns="http://www.w3.org/2000/svg" height="1em" width="1em">
  <path d="M23.9111 11.3176C23.9931 9.08606 24.6201 7.12594 25.7772 5.4874C26.9402 3.84056 28.8628 2.6707 31.4945 2.00781C31.512 2.08885 31.5302 2.16994 31.5491 2.25072V2.67472C31.5491 3.63616 31.3159 4.73862 30.8556 5.95127C30.3732 7.12541 29.6193 8.23048 28.618 9.22782C27.6815 10.1066 26.8151 10.6884 26.0494 10.9514C25.7966 11.0269 25.45 11.1012 25.0314 11.1681C24.6591 11.2261 24.2856 11.276 23.9111 11.3176Z" fill="black"/>
  <path d="M24.3502 14.629C21.3775 14.629 19.3136 11.9999 16.3813 11.9999C13.4491 11.9999 7.4082 14.6951 7.4082 23.9999C7.4082 33.3047 12.7726 39.2999 13.3726 39.9999C13.9725 40.7 15.3601 42.4994 17.5098 42.4994C19.6596 42.4994 22.0131 40.7902 24.3502 40.7902C26.6872 40.7902 29.6288 42.4994 31.5492 42.4994C33.4696 42.4994 34.2595 41.7165 35.5665 40.3662C36.8734 39.0159 39.3663 34.8952 40.2369 32.422C38.8029 31.5684 35.0021 29.2511 35.0021 23.9999C35.0021 20.4992 36.2814 17.5909 38.8401 15.2752C37.1615 13.0917 35.2147 11.9999 32.9996 11.9999C29.6769 11.9999 27.3229 14.629 24.3502 14.629Z" fill="#2F88FF" stroke="black" stroke-width="4" stroke-linejoin="round"/>
</svg>

<svg width="48" height="48" fill="none" xmlns="http://www.w3.org/2000/svg"><path d="M23.911 11.318c.082-2.232.71-4.192 1.866-5.83 1.163-1.647 3.086-2.817 5.717-3.48l.055.243v.424c0 .961-.233 2.064-.693 3.276-.483 1.174-1.237 2.28-2.238 3.277-.936.879-1.803 1.46-2.569 1.723-.252.076-.599.15-1.018.217-.372.058-.745.108-1.12.15Z" fill="#000"/><path d="M24.35 14.629c-2.973 0-5.036-2.63-7.969-2.63-2.932 0-8.973 2.696-8.973 12 0 9.306 5.365 15.3 5.965 16 .6.701 1.987 2.5 4.137 2.5 2.15 0 4.503-1.709 6.84-1.709 2.337 0 5.279 1.71 7.2 1.71 1.92 0 2.71-.783 4.016-2.134 1.307-1.35 3.8-5.47 4.67-7.944-1.433-.854-5.234-3.17-5.234-8.422 0-3.5 1.28-6.41 3.838-8.725C37.161 13.092 35.215 12 33 12c-3.323 0-5.677 2.629-8.65 2.629Z" fill="#2F88FF" stroke="#000" stroke-width="4" stroke-linejoin="round"/></svg>
